svgs/sharp-light/chair.svg

<svg xmlns="http://www.w3.org/2000/svg" viewBox="0 0 448 512"><!--! Font Awesome Pro 6.6.0 by @fontawesome - https://fontawesome.com License - https://fontawesome.com/license (Commercial License) Copyright 2024 Fonticons, Inc. --><path d="M288 32l64 0 0 192 32 0 0-192 0-32L352 0 96 0 64 0l0 32 0 192 32 0L96 32l64 0 0 192 32 0 0-192 64 0 0 192 32 0 0-192zM67.8 288l312.4 0 32 64L35.8 352l32-64zM448 352l-48-96L48 256 0 352l0 32 32 0 0 112 0 16 32 0 0-16 0-112 320 0 0 112 0 16 32 0 0-16 0-112 32 0 0-32z"/></svg>

<svg xmlns="http://www.w3.org/2000/svg" viewBox="0 0 448 512"><!--! Font Awesome Pro 6.4.0 by @fontawesome - https://fontawesome.com License - https://fontawesome.com/license (Commercial License) Copyright 2023 Fonticons, Inc. --><path d="M288 32h64V224h32V32 0H352 96 64V32 224H96V32h64V224h32V32h64V224h32V32zM67.8 288H380.2l32 64H35.8l32-64zM448 352l-48-96H48L0 352v32H32V496v16H64V496 384H384V496v16h32V496 384h32V352z"/></svg>
